X:1
T:Samuel Sebastian Wesley
T:Eden
%%score { ( 1 2 ) | ( 3 4 ) }
L:1/8
M:4/4
K:F
V:1 treble 
V:2 treble 
V:3 bass 
V:4 bass 
V:1
 A4 A3 G | G2 F2 F4 | F4 F3 F | A8 | c4 c3 B | B2 A2 A4 | G4 G3 G | c8 | d4 d3 c | c2 B2 B4 | %10
 d2 d2 c3 B | B2 A2 A4 | f4 e3 d | c2 A2 (F2 B2) | A4 G3 F | F8 | B4 A4 |] %17
V:2
 F4 F3 E | E2 F2 F4 | D4 D3 D | C8 | F4 E3 E | F2 F2 F4 | E4 F3 F | E8 | D4 A3 A | A2 G2 G4 | %10
 B2 B2 A3 G | G4 F4 | F4 F3 F | F2 E2 (F2 G2) | F4 E3 F | F8 | F4 F4 |] %17
V:3
 C4 C3 B, | B,2 A,2 A,4 | B,4 F,3 F, | F,8 | C4 C3 C | C2 C2 C4 | C4 =B,3 B, | [G,C]8 | A,4 D3 D | %9
 D2 D2 D4 | C2 C2 C3 C | C2 C2 C4 | F,4 A,3 B, | C2 C2 (A,2 D2) | C4 [B,C]3 [A,A,CC] | [A,C]8 | %16
 D4 C4 |] %17
V:4
 F,4 C,3 C, | D,2 D,2 D,4 | B,,4 B,,3 B,, | F,8 | A,4 G,3 G, | F,2 F,2 F,4 | G,4 G,3 G, | C,8 | %8
 ^F,4 F,3 F, | G,2 G,2 G,4 | E,2 E,2 E,3 E, | F,2 F,2 F,4 | D,4 C,3 B,, | A,,2 C,2 (D,2 B,,2) | %14
 C,4 C,3 F, | F,8 | B,,4 F,4 |] %17

